X: 40429
T: Tom Mhic's
R: polka
M: 2/4
K: Dmajor
|:F/E/|D>E FA|BA FD|E>F GA|BA F/G/A/F/|
DD/E/ FA|BA FD|E>F G/F/E|ED D:|
|:A|d2 c2|BA FA|B2 B>c|BA F/G/A|
de/d/ cd/c/|BA FD|E>F GE|ED D:|

